; G-Code generated by Simplify3D(R) Version 4.0.1
; Jun 10, 2022 at 5:04:41 PM
; Settings Summary
;   processName,Hurakan
;   applyToModels,test01-level
;   profileName,Default (modified)
;   profileVersion,2017-03-01 08:00:00
;   baseProfile,
;   printMaterial,PLA
;   printQuality,Medium
;   printExtruders,
;   extruderName,Primary Extruder
;   extruderToolheadNumber,0
;   extruderDiameter,0.4
;   extruderAutoWidth,1
;   extruderWidth,0.48
;   extrusionMultiplier,1
;   extruderUseRetract,1
;   extruderRetractionDistance,3
;   extruderExtraRestartDistance,0
;   extruderRetractionZLift,0
;   extruderRetractionSpeed,3600
;   extruderUseCoasting,0
;   extruderCoastingDistance,0.2
;   extruderUseWipe,0
;   extruderWipeDistance,5
;   primaryExtruder,0
;   layerHeight,0.2
;   topSolidLayers,3
;   bottomSolidLayers,2
;   perimeterOutlines,2
;   printPerimetersInsideOut,1
;   startPointOption,2
;   startPointOriginX,10
;   startPointOriginY,0
;   sequentialIslands,0
;   spiralVaseMode,0
;   firstLayerHeightPercentage,100
;   firstLayerWidthPercentage,100
;   firstLayerUnderspeed,0.6
;   useRaft,0
;   raftExtruder,0
;   raftTopLayers,1
;   raftBaseLayers,1
;   raftOffset,2
;   raftSeparationDistance,0.14
;   raftTopInfill,60
;   aboveRaftSpeedMultiplier,0.6
;   useSkirt,0
;   skirtExtruder,0
;   skirtLayers,3
;   skirtOutlines,5
;   skirtOffset,0
;   usePrimePillar,0
;   primePillarExtruder,999
;   primePillarWidth,12
;   primePillarLocation,7
;   primePillarSpeedMultiplier,1
;   useOozeShield,0
;   oozeShieldExtruder,999
;   oozeShieldOffset,2
;   oozeShieldOutlines,1
;   oozeShieldSidewallShape,1
;   oozeShieldSidewallAngle,30
;   oozeShieldSpeedMultiplier,1
;   infillExtruder,0
;   internalInfillPattern,Rectilinear
;   externalInfillPattern,Rectilinear
;   infillPercentage,20
;   outlineOverlapPercentage,15
;   infillExtrusionWidthPercentage,100
;   minInfillLength,5
;   infillLayerInterval,1
;   internalInfillAngles,0
;   overlapInternalInfillAngles,0
;   externalInfillAngles,45,-45
;   generateSupport,0
;   supportExtruder,0
;   supportInfillPercentage,20
;   supportExtraInflation,0
;   supportBaseLayers,0
;   denseSupportExtruder,0
;   denseSupportLayers,0
;   denseSupportInfillPercentage,30
;   supportLayerInterval,1
;   supportHorizontalPartOffset,0.3
;   supportUpperSeparationLayers,1
;   supportLowerSeparationLayers,1
;   supportType,0
;   supportGridSpacing,4
;   maxOverhangAngle,45
;   supportAngles,0
;   temperatureName,Primary Extruder,HB
;   temperatureNumber,0,0
;   temperatureSetpointCount,1,1
;   temperatureSetpointLayers,1,1
;   temperatureSetpointTemperatures,200,60
;   temperatureStabilizeAtStartup,1,1
;   temperatureHeatedBed,0,1
;   temperatureRelayBetweenLayers,0,0
;   temperatureRelayBetweenLoops,0,0
;   fanLayers,1,2
;   fanSpeeds,0,100
;   blipFanToFullPower,0
;   adjustSpeedForCooling,0
;   minSpeedLayerTime,15
;   minCoolingSpeedSlowdown,20
;   increaseFanForCooling,0
;   minFanLayerTime,45
;   maxCoolingFanSpeed,100
;   increaseFanForBridging,0
;   bridgingFanSpeed,100
;   use5D,1
;   relativeEdistances,0
;   allowEaxisZeroing,1
;   independentExtruderAxes,0
;   includeM10123,0
;   stickySupport,1
;   applyToolheadOffsets,0
;   gcodeXoffset,0
;   gcodeYoffset,0
;   gcodeZoffset,0
;   overrideMachineDefinition,1
;   machineTypeOverride,0
;   strokeXoverride,235
;   strokeYoverride,235
;   strokeZoverride,270
;   originOffsetXoverride,0
;   originOffsetYoverride,0
;   originOffsetZoverride,0
;   homeXdirOverride,-1
;   homeYdirOverride,-1
;   homeZdirOverride,-1
;   flipXoverride,1
;   flipYoverride,-1
;   flipZoverride,1
;   toolheadOffsets,0,0|0,0|0,0|0,0|0,0|0,0
;   overrideFirmwareConfiguration,0
;   firmwareTypeOverride,RepRap (Marlin/Repetier/Sprinter)
;   GPXconfigOverride,r2
;   baudRateOverride,115200
;   overridePrinterModels,0
;   printerModelsOverride
;   startingGcode,G28 ; home all axes
;   layerChangeGcode,
;   retractionGcode,
;   toolChangeGcode,
;   endingGcode,G91,G01 Z5,G90,G0 X0;,M104 S0 ; turn off extruder,M140 S0 ; turn off bed,M84 ; disable motors,G90
;   exportFileFormat,gcode
;   celebration,0
;   celebrationSong,Random Song
;   postProcessing,
;   defaultSpeed,4800
;   outlineUnderspeed,0.8
;   solidInfillUnderspeed,0.8
;   supportUnderspeed,0.8
;   rapidXYspeed,4800
;   rapidZspeed,1002
;   minBridgingArea,50
;   bridgingExtraInflation,0
;   bridgingExtrusionMultiplier,1
;   bridgingSpeedMultiplier,1
;   useFixedBridgingAngle,0
;   fixedBridgingAngle,0
;   applyBridgingToPerimeters,0
;   filamentDiameters,1.75|1.75|1.75|1.75|1.75|1.75
;   filamentPricesPerKg,46|46|46|46|46|46
;   filamentDensities,1.25|1.25|1.25|1.25|1.25|1.25
;   useMinPrintHeight,0
;   minPrintHeight,0
;   useMaxPrintHeight,0
;   maxPrintHeight,0
;   useDiaphragm,0
;   diaphragmLayerInterval,20
;   robustSlicing,1
;   mergeAllIntoSolid,0
;   onlyRetractWhenCrossingOutline,1
;   retractBetweenLayers,1
;   useRetractionMinTravel,0
;   retractionMinTravel,3
;   retractWhileWiping,0
;   onlyWipeOutlines,1
;   avoidCrossingOutline,0
;   maxMovementDetourFactor,3
;   toolChangeRetractionDistance,12
;   toolChangeExtraRestartDistance,-0.5
;   toolChangeRetractionSpeed,600
;   externalThinWallType,0
;   internalThinWallType,2
;   thinWallAllowedOverlapPercentage,10
;   singleExtrusionMinLength,1
;   singleExtrusionMinPrintingWidthPercentage,50
;   singleExtrusionMaxPrintingWidthPercentage,200
;   singleExtrusionEndpointExtension,0.2
;   horizontalSizeCompensation,0
G90
M82
M106 S0
M140 S60
M190 S60
M104 S200
M109 S200
G28 ; home all axes
G92 E0
G1 E-3.0000 F3600
G1 Z0.200 F1002
; process Falcon
; layer 1, Z = 0.200
; tool H0.200 W0.480
; outer perimeter
G1 X7.740 Y7.740 F4800
G1 E0.0000 F1080
G92 E0
G1 X227.260 Y7.740 E8.7615 F2304
G1 X227.260 Y227.260 E17.5230
G1 X7.740 Y227.260 E26.2846
G1 X7.740 Y7.740 E35.0461
G1 X7.760 Y7.760 F4800
G92 E0
G1 X7.760 Y227.240 E8.7599 F2304
G1 X49.802 Y227.240 E10.4379
G1 X49.925 Y226.944 E10.4507
G1 X34.069 Y211.088 E11.3457
G1 X49.839 Y195.317 E12.2358
G1 X33.927 Y179.405 E13.1340
G1 X49.698 Y163.634 E14.0242
G1 X33.786 Y147.722 E14.9223
G1 X49.557 Y131.951 E15.8125
G1 X33.644 Y116.039 E16.7106
G1 X49.415 Y100.269 E17.6008
G1 X33.503 Y84.356 E18.4989
G1 X49.274 Y68.586 E19.3891
G1 X33.362 Y52.674 E20.2873
G1 X49.132 Y36.903 E21.1774
G1 X33.079 Y20.849 E22.0835
G1 X45.872 Y8.056 E22.8056
G1 X45.749 Y7.760 E22.8184
G1 X7.760 Y7.760 E24.3347
G92 E0
G1 E-3.0000 F3600
G1 X33.107 Y20.849 F4800
G1 E0.0000 F3600
G92 E0
G1 X49.161 Y36.903 E0.9061 F2304
G1 X33.390 Y52.674 E1.7963
G1 X49.302 Y68.586 E2.6944
G1 X33.531 Y84.356 E3.5846
G1 X49.443 Y100.269 E4.4828
G1 X33.673 Y116.039 E5.3729
G1 X49.585 Y131.951 E6.2711
G1 X33.814 Y147.722 E7.1612
G1 X49.726 Y163.634 E8.0594
G1 X33.956 Y179.405 E8.9496
G1 X49.868 Y195.317 E9.8477
G1 X34.097 Y211.088 E10.7379
G1 X50.249 Y227.240 E11.6496
G1 X89.802 Y227.240 E13.2282
G1 X89.925 Y226.944 E13.2410
G1 X74.069 Y211.088 E14.1360
G1 X89.839 Y195.317 E15.0261
G1 X73.927 Y179.405 E15.9243
G1 X89.698 Y163.634 E16.8145
G1 X73.786 Y147.722 E17.7126
G1 X89.557 Y131.951 E18.6028
G1 X73.644 Y116.039 E19.5009
G1 X89.415 Y100.269 E20.3911
G1 X73.503 Y84.356 E21.2892
G1 X89.274 Y68.586 E22.1794
G1 X73.362 Y52.674 E23.0776
G1 X89.132 Y36.903 E23.9677
G1 X73.079 Y20.849 E24.8739
G1 X85.872 Y8.056 E25.5960
G1 X85.749 Y7.760 E25.6088
G1 X46.196 Y7.760 E27.1874
G1 X33.107 Y20.849 E27.9262
G92 E0
G1 E-3.0000 F3600
G1 X73.107 Y20.849 F4800
G1 E0.0000 F3600
G92 E0
G1 X89.161 Y36.903 E0.9061 F2304
G1 X73.390 Y52.674 E1.7963
G1 X89.302 Y68.586 E2.6944
G1 X73.531 Y84.356 E3.5846
G1 X89.443 Y100.269 E4.4828
G1 X73.673 Y116.039 E5.3729
G1 X89.585 Y131.951 E6.2711
G1 X73.814 Y147.722 E7.1612
G1 X89.726 Y163.634 E8.0594
G1 X73.956 Y179.405 E8.9496
G1 X89.868 Y195.317 E9.8477
G1 X74.097 Y211.088 E10.7379
G1 X90.249 Y227.240 E11.6496
G1 X129.802 Y227.240 E13.2282
G1 X129.925 Y226.944 E13.2410
G1 X114.069 Y211.088 E14.1360
G1 X129.839 Y195.317 E15.0261
G1 X113.927 Y179.405 E15.9243
G1 X129.698 Y163.634 E16.8145
G1 X113.786 Y147.722 E17.7126
G1 X129.557 Y131.951 E18.6028
G1 X113.644 Y116.039 E19.5009
G1 X129.415 Y100.269 E20.3911
G1 X113.503 Y84.356 E21.2892
G1 X129.274 Y68.586 E22.1794
G1 X113.362 Y52.674 E23.0776
G1 X129.132 Y36.903 E23.9677
G1 X113.079 Y20.849 E24.8739
G1 X125.872 Y8.056 E25.5960
G1 X125.749 Y7.760 E25.6088
G1 X86.196 Y7.760 E27.1874
G1 X73.107 Y20.849 E27.9262
G92 E0
G1 E-3.0000 F3600
G1 X113.107 Y20.849 F4800
G1 E0.0000 F3600
G92 E0
G1 X129.161 Y36.903 E0.9061 F2304
G1 X113.390 Y52.674 E1.7963
G1 X129.302 Y68.586 E2.6944
G1 X113.531 Y84.356 E3.5846
G1 X129.443 Y100.269 E4.4828
G1 X113.673 Y116.039 E5.3729
G1 X129.585 Y131.951 E6.2711
G1 X113.814 Y147.722 E7.1612
G1 X129.726 Y163.634 E8.0594
G1 X113.956 Y179.405 E8.9496
G1 X129.868 Y195.317 E9.8477
G1 X114.097 Y211.088 E10.7379
G1 X130.249 Y227.240 E11.6496
G1 X169.802 Y227.240 E13.2282
G1 X169.925 Y226.944 E13.2410
G1 X154.069 Y211.088 E14.1360
G1 X169.839 Y195.317 E15.0261
G1 X153.927 Y179.405 E15.9243
G1 X169.698 Y163.634 E16.8145
G1 X153.786 Y147.722 E17.7126
G1 X169.557 Y131.951 E18.6028
G1 X153.644 Y116.039 E19.5009
G1 X169.415 Y100.269 E20.3911
G1 X153.503 Y84.356 E21.2892
G1 X169.274 Y68.586 E22.1794
G1 X153.362 Y52.674 E23.0776
G1 X169.132 Y36.903 E23.9677
G1 X153.079 Y20.849 E24.8739
G1 X165.872 Y8.056 E25.5960
G1 X165.749 Y7.760 E25.6088
G1 X126.196 Y7.760 E27.1874
G1 X113.107 Y20.849 E27.9262
G92 E0
G1 E-3.0000 F3600
G1 X153.107 Y20.849 F4800
G1 E0.0000 F3600
G92 E0
G1 X169.161 Y36.903 E0.9061 F2304
G1 X153.390 Y52.674 E1.7963
G1 X169.302 Y68.586 E2.6944
G1 X153.531 Y84.356 E3.5846
G1 X169.443 Y100.269 E4.4828
G1 X153.673 Y116.039 E5.3729
G1 X169.585 Y131.951 E6.2711
G1 X153.814 Y147.722 E7.1612
G1 X169.726 Y163.634 E8.0594
G1 X153.956 Y179.405 E8.9496
G1 X169.868 Y195.317 E9.8477
G1 X154.097 Y211.088 E10.7379
G1 X170.249 Y227.240 E11.6496
G1 X209.802 Y227.240 E13.2282
G1 X209.925 Y226.944 E13.2410
G1 X194.069 Y211.088 E14.1360
G1 X209.839 Y195.317 E15.0261
G1 X193.927 Y179.405 E15.9243
G1 X209.698 Y163.634 E16.8145
G1 X193.786 Y147.722 E17.7126
G1 X209.557 Y131.951 E18.6028
G1 X193.644 Y116.039 E19.5009
G1 X209.415 Y100.269 E20.3911
G1 X193.503 Y84.356 E21.2892
G1 X209.274 Y68.586 E22.1794
G1 X193.362 Y52.674 E23.0776
G1 X209.132 Y36.903 E23.9677
G1 X193.079 Y20.849 E24.8739
G1 X205.872 Y8.056 E25.5960
G1 X205.749 Y7.760 E25.6088
G1 X166.196 Y7.760 E27.1874
G1 X153.107 Y20.849 E27.9262
G92 E0
G1 E-3.0000 F3600
G1 X193.107 Y20.849 F4800
G1 E0.0000 F3600
G92 E0
G1 X209.161 Y36.903 E0.9061 F2304
G1 X193.390 Y52.674 E1.7963
G1 X209.302 Y68.586 E2.6944
G1 X193.531 Y84.356 E3.5846
G1 X209.443 Y100.269 E4.4828
G1 X193.673 Y116.039 E5.3729
G1 X209.585 Y131.951 E6.2711
G1 X193.814 Y147.722 E7.1612
G1 X209.726 Y163.634 E8.0594
G1 X193.956 Y179.405 E8.9496
G1 X209.868 Y195.317 E9.8477
G1 X194.097 Y211.088 E10.7379
G1 X210.249 Y227.240 E11.6496
G1 X227.240 Y227.240 E12.3277
G1 X227.240 Y7.760 E21.0876
G1 X206.196 Y7.760 E21.9275
G1 X193.107 Y20.849 E22.6664
G92 E0
G1 E-3.0000 F3600
; layer 2, Z = 0.400
M106 S255
G1 X227.260 Y7.740 F4800
G1 Z0.400 F1002
G1 E0.0000 F3600
G92 E0
G1 X227.260 Y227.260 E8.7615 F3840
G1 X7.740 Y227.260 E17.5230
G1 X7.740 Y7.740 E26.2846
G1 X227.260 Y7.740 E35.0461
G1 X227.240 Y7.760 F4800
G92 E0
G1 X206.196 Y7.760 E0.8399 F3840
G1 X193.107 Y20.849 E1.5787
G1 X209.161 Y36.903 E2.4848
G1 X193.390 Y52.674 E3.3750
G1 X209.302 Y68.586 E4.2732
G1 X193.531 Y84.356 E5.1633
G1 X209.443 Y100.269 E6.0615
G1 X193.673 Y116.039 E6.9516
G1 X209.585 Y131.951 E7.8498
G1 X193.814 Y147.722 E8.7400
G1 X209.726 Y163.634 E9.6381
G1 X193.956 Y179.405 E10.5283
G1 X209.868 Y195.317 E11.4264
G1 X194.097 Y211.088 E12.3166
G1 X210.249 Y227.240 E13.2283
G1 X227.240 Y227.240 E13.9064
G1 X227.240 Y7.760 E22.6664
G92 E0
G1 E-3.0000 F3600
G1 X205.872 Y8.056 F4800
G1 E0.0000 F3600
G92 E0
G1 X205.749 Y7.760 E0.0128 F3840
G1 X166.196 Y7.760 E1.5914
G1 X153.107 Y20.849 E2.3303
G1 X169.161 Y36.903 E3.2364
G1 X153.390 Y52.674 E4.1266
G1 X169.302 Y68.586 E5.0247
G1 X153.531 Y84.356 E5.9149
G1 X169.443 Y100.269 E6.8130
G1 X153.673 Y116.039 E7.7032
G1 X169.585 Y131.951 E8.6013
G1 X153.814 Y147.722 E9.4915
G1 X169.726 Y163.634 E10.3896
G1 X153.956 Y179.405 E11.2798
G1 X169.868 Y195.317 E12.1780
G1 X154.097 Y211.088 E13.0681
G1 X170.249 Y227.240 E13.9798
G1 X209.802 Y227.240 E15.5585
G1 X209.925 Y226.944 E15.5713
G1 X194.069 Y211.088 E16.4662
G1 X209.839 Y195.317 E17.3564
G1 X193.927 Y179.405 E18.2545
G1 X209.698 Y163.634 E19.1447
G1 X193.786 Y147.722 E20.0429
G1 X209.557 Y131.951 E20.9330
G1 X193.644 Y116.039 E21.8312
G1 X209.415 Y100.269 E22.7213
G1 X193.503 Y84.356 E23.6195
G1 X209.274 Y68.586 E24.5097
G1 X193.362 Y52.674 E25.4078
G1 X209.132 Y36.903 E26.2980
G1 X193.079 Y20.849 E27.2041
G1 X205.872 Y8.056 E27.9262
G92 E0
G1 E-3.0000 F3600
G1 X165.872 Y8.056 F4800
G1 E0.0000 F3600
G92 E0
G1 X165.749 Y7.760 E0.0128 F3840
G1 X126.196 Y7.760 E1.5914
G1 X113.107 Y20.849 E2.3303
G1 X129.161 Y36.903 E3.2364
G1 X113.390 Y52.674 E4.1266
G1 X129.302 Y68.586 E5.0247
G1 X113.531 Y84.356 E5.9149
G1 X129.443 Y100.269 E6.8130
G1 X113.673 Y116.039 E7.7032
G1 X129.585 Y131.951 E8.6013
G1 X113.814 Y147.722 E9.4915
G1 X129.726 Y163.634 E10.3896
G1 X113.956 Y179.405 E11.2798
G1 X129.868 Y195.317 E12.1780
G1 X114.097 Y211.088 E13.0681
G1 X130.249 Y227.240 E13.9798
G1 X169.802 Y227.240 E15.5585
G1 X169.925 Y226.944 E15.5713
G1 X154.069 Y211.088 E16.4662
G1 X169.839 Y195.317 E17.3564
G1 X153.927 Y179.405 E18.2545
G1 X169.698 Y163.634 E19.1447
G1 X153.786 Y147.722 E20.0429
G1 X169.557 Y131.951 E20.9330
G1 X153.644 Y116.039 E21.8312
G1 X169.415 Y100.269 E22.7213
G1 X153.503 Y84.356 E23.6195
G1 X169.274 Y68.586 E24.5097
G1 X153.362 Y52.674 E25.4078
G1 X169.132 Y36.903 E26.2980
G1 X153.079 Y20.849 E27.2041
G1 X165.872 Y8.056 E27.9262
G92 E0
G1 E-3.0000 F3600
G1 X125.872 Y8.056 F4800
G1 E0.0000 F3600
G92 E0
G1 X125.749 Y7.760 E0.0128 F3840
G1 X86.196 Y7.760 E1.5914
G1 X73.107 Y20.849 E2.3303
G1 X89.161 Y36.903 E3.2364
G1 X73.390 Y52.674 E4.1266
G1 X89.302 Y68.586 E5.0247
G1 X73.531 Y84.356 E5.9149
G1 X89.443 Y100.269 E6.8130
G1 X73.673 Y116.039 E7.7032
G1 X89.585 Y131.951 E8.6013
G1 X73.814 Y147.722 E9.4915
G1 X89.726 Y163.634 E10.3896
G1 X73.956 Y179.405 E11.2798
G1 X89.868 Y195.317 E12.1780
G1 X74.097 Y211.088 E13.0681
G1 X90.249 Y227.240 E13.9798
G1 X129.802 Y227.240 E15.5585
G1 X129.925 Y226.944 E15.5713
G1 X114.069 Y211.088 E16.4662
G1 X129.839 Y195.317 E17.3564
G1 X113.927 Y179.405 E18.2545
G1 X129.698 Y163.634 E19.1447
G1 X113.786 Y147.722 E20.0429
G1 X129.557 Y131.951 E20.9330
G1 X113.644 Y116.039 E21.8312
G1 X129.415 Y100.269 E22.7213
G1 X113.503 Y84.356 E23.6195
G1 X129.274 Y68.586 E24.5097
G1 X113.362 Y52.674 E25.4078
G1 X129.132 Y36.903 E26.2980
G1 X113.079 Y20.849 E27.2041
G1 X125.872 Y8.056 E27.9262
G92 E0
G1 E-3.0000 F3600
G1 X85.872 Y8.056 F4800
G1 E0.0000 F3600
G92 E0
G1 X85.749 Y7.760 E0.0128 F3840
G1 X46.196 Y7.760 E1.5914
G1 X33.107 Y20.849 E2.3303
G1 X49.161 Y36.903 E3.2364
G1 X33.390 Y52.674 E4.1266
G1 X49.302 Y68.586 E5.0247
G1 X33.531 Y84.356 E5.9149
G1 X49.443 Y100.269 E6.8130
G1 X33.673 Y116.039 E7.7032
G1 X49.585 Y131.951 E8.6013
G1 X33.814 Y147.722 E9.4915
G1 X49.726 Y163.634 E10.3896
G1 X33.956 Y179.405 E11.2798
G1 X49.868 Y195.317 E12.1780
G1 X34.097 Y211.088 E13.0681
G1 X50.249 Y227.240 E13.9798
G1 X89.802 Y227.240 E15.5585
G1 X89.925 Y226.944 E15.5713
G1 X74.069 Y211.088 E16.4662
G1 X89.839 Y195.317 E17.3564
